svg/Pictogram/pictograms-aem-0089-never_reach_into_area_where_parts_are_in_motion.svg

<?xml version="1.0" encoding="ISO-8859-1" standalone="yes"?>
<svg height="304.015" width="304.01">
  <metadata>
    <rdf:RDF xmlns:cc="http://web.resource.org/cc/" xmlns:dc="http://purl.org/dc/elements/1.1/" xmlns:rdf="http://www.w3.org/1999/02/22-rdf-syntax-ns#">
      <cc:Work rdf:about="">
        <dc:title></dc:title>
        <dc:description></dc:description>
        <dc:subject>
          <rdf:Bag>
            <rdf:li></rdf:li>
          </rdf:Bag>
        </dc:subject>
        <dc:publisher>
          <cc:Agent rdf:about="http://www.unece.org/trans/danger/publi/ghs/pictograms.html">
            <dc:title>Source: UNECE GHS of Classification and Labeling of Chemicals, Source: AEM Pictorial Database, Source: AEM Pictorial Database, Source: AEM Pictorial Database, Source: AEM Pictorial Database</dc:title>
          </cc:Agent>
        </dc:publisher>
        <dc:creator>
          <cc:Agent>
            <dc:title></dc:title>
          </cc:Agent>
        </dc:creator>
        <dc:rights>
          <cc:Agent>
            <dc:title></dc:title>
          </cc:Agent>
        </dc:rights>
        <dc:date></dc:date>
        <dc:format>image/svg+xml</dc:format>
        <dc:type rdf:resource="http://purl.org/dc/dcmitype/StillImage"/>
        <cc:license rdf:resource="http://en.wikipedia.org/wiki/Public_domain"/>
        <dc:language>en</dc:language>
      </cc:Work>
    </rdf:RDF>
  </metadata>
  <defs><marker id="ArrowEnd" markerHeight="3" markerUnits="strokeWidth" markerWidth="4" orient="auto" refX="0" refY="5" viewBox="0 0 10 10"><path d="M 0 0 L 10 5 L 0 10 z"/></marker><marker id="ArrowStart" markerHeight="3" markerUnits="strokeWidth" markerWidth="4" orient="auto" refX="10" refY="5" viewBox="0 0 10 10"><path d="M 10 0 L 0 5 L 10 10 z"/></marker> </defs>
  <g id="g2958" transform="matrix(1.3532768,0,0,1.3532781,-53.207834,-52.192858)">
    <path d="M 187.257 141.202L 187.257 76.5234L 218.664 76.5234L 218.664 141.202L 187.257 141.202zM 198.027 106.507L 198.027 116.167L 193.199 116.167L 203.277 132.128L 212.726 116.167L 207.863 116.167L 207.863 106.507L 198.027 106.507" style="stroke:none; fill-rule:evenodd; fill:#000000"/>
    <path d="M 251.199 162.812L 251.199 227.492L 219.793 227.492L 219.793 162.812L 251.199 162.812zM 240.429 197.507L 240.429 187.847L 245.257 187.847L 235.179 171.89L 225.726 187.847L 230.593 187.847L 230.593 197.507L 240.429 197.507" style="stroke:none; fill-rule:evenodd; fill:#000000"/>
    <path d="M 151.632 186.64C 154.113 186.64 156.125 184.617 156.125 182.136C 156.125 179.652 154.113 177.644 151.632 177.644L 122.117 177.644L 121.621 177.636C 121.07 177.636 120.621 177.187 120.621 176.636C 120.621 176.085 121.07 175.648 121.621 175.648L 165.261 175.648L 165.242 175.648C 167.722 175.648 169.734 173.656 169.734 171.175C 169.734 168.695 167.722 166.605 165.242 166.605L 121.621 166.605C 121.07 166.605 120.621 166.003 120.621 165.452C 120.621 164.902 121.07 164.425 121.621 164.425L 171.351 164.425C 173.832 164.425 175.843 162.363 175.843 159.882C 175.843 157.402 173.835 155.39 171.351 155.39L 121.765 155.39L 121.621 155.378C 121.07 155.378 120.625 154.933 120.625 154.382C 120.625 153.831 121.07 153.382 121.621 153.382L 163.992 153.382L 164.164 153.363C 166.644 153.363 168.656 151.351 168.656 148.867C 168.656 146.386 166.644 144.378 164.164 144.378L 122.25 144.378L 122.039 144.386C 121.488 144.386 121.039 143.941 121.039 143.386C 121.039 142.835 121.488 142.386 122.039 142.386L 124.007 142.386L 124.226 142.394L 132.582 142.394C 145.699 142.394 144.132 132.05 144.132 132.05L 95.429 132.05C 95.429 132.05 81.9134 131.593 73.7064 140.913L 60.1947 140.913L 60.1947 176.503L 72.8431 176.503C 72.8431 176.503 82.8314 186.64 93.4603 186.64L 151.632 186.64" style="stroke:none; fill-rule:evenodd; fill:#000000"/>
    <path d="M 148.843 200.284L 107.902 159.343L 148.843 118.402L 141.914 111.472L 100.972 152.413L 59.7455 111.187L 52.8119 118.117L 94.0423 159.343L 52.8119 200.574L 59.7455 207.503L 100.972 166.273L 141.918 207.214L 148.843 200.284" style="stroke:none; fill-rule:evenodd; fill:#ff0000"/>
    <path d="M 29.6205 265.394L 2.62042 265.394" style="stroke:#000000; stroke-width:0.5; fill:none"/>
    <path d="M 38.6205 274.394L 38.6205 301.394" style="stroke:#000000; stroke-width:0.5; fill:none"/>
    <path d="M 29.6205 38.6204L 2.62042 38.6204" style="stroke:#000000; stroke-width:0.5; fill:none"/>
    <path d="M 38.6205 29.6204L 38.6205 2.62042" style="stroke:#000000; stroke-width:0.5; fill:none"/>
    <path d="M 274.39 38.6204L 301.39 38.6204" style="stroke:#000000; stroke-width:0.5; fill:none"/>
    <path d="M 265.39 29.6204L 265.39 2.62042" style="stroke:#000000; stroke-width:0.5; fill:none"/>
    <path d="M 274.39 265.394L 301.39 265.394" style="stroke:#000000; stroke-width:0.5; fill:none"/>
    <path d="M 265.39 274.394L 265.39 301.394" style="stroke:#000000; stroke-width:0.5; fill:none"/>
  </g>
</svg>

<svg viewBox="0 0 304.01 304.01"><g transform="matrix(1.35328 0 0 1.35328-53.21-52.19)" fill-rule="evenodd"><path d="m187.26 141.2v-64.68h31.407v64.68h-31.407m10.77-34.695v9.66h-4.828l10.08 15.961 9.449-15.961h-4.863v-9.66h-9.836"/><path d="m251.2 162.81v64.68h-31.406v-64.68h31.406m-10.77 34.695v-9.66h4.828l-10.08-15.957-9.453 15.957h4.867v9.66h9.836"/><path d="m151.63 186.64c2.481 0 4.493-2.023 4.493-4.504 0-2.484-2.01-4.492-4.493-4.492h-29.515l-.496-.008c-.551 0-1-.449-1-1 0-.551.449-.988 1-.988h43.64-.019c2.48 0 4.492-1.992 4.492-4.473 0-2.48-2.01-4.57-4.492-4.57h-43.621c-.551 0-1-.602-1-1.153 0-.55.449-1.027 1-1.027h49.73c2.481 0 4.492-2.062 4.492-4.543 0-2.48-2.01-4.492-4.492-4.492h-49.586l-.144-.012c-.551 0-.996-.445-.996-.996 0-.551.445-1 .996-1h42.37l.172-.019c2.48 0 4.492-2.01 4.492-4.496 0-2.481-2.01-4.489-4.492-4.489h-41.914l-.211.008c-.551 0-1-.445-1-1 0-.551.449-1 1-1h1.968l.219.008h8.356c13.12 0 11.55-10.344 11.55-10.344h-48.703c0 0-13.516-.457-21.723 8.863h-13.512v35.59h12.648c0 0 9.988 10.137 20.617 10.137h58.17"/><path d="m148.84 200.28l-40.941-40.941 40.941-40.941-6.929-6.93-40.942 40.941-41.23-41.23-6.934 6.93 41.23 41.23-41.23 41.23 6.934 6.929 41.23-41.23 40.946 40.941 6.925-6.93" fill="#f00"/></g></svg>
